src/icons/waves.svg

<svg viewBox="0 0 3673 569" xmlns="http://www.w3.org/2000/svg" fill-rule="evenodd" clip-rule="evenodd" stroke-linejoin="round" stroke-miterlimit="2">
  <path d="M0 402h3671.9l.1-169.8s-470.9 42.2-926.1-135.6c-548.1-214-976-9-1036 14.3-146.1 56.5-367.1 233.8-1099.5 53.8C336.1 87.8 0 140.7 0 140.7V402z" fill="url(#_Linear1)" transform="translate(.011316 -.0116717)"/>
  <path d="M0 567.8h3672l.1-178.6s-495.2 44.3-973.9-142.6c-576.4-225-1026.3-9.4-1089.5 15-153.7 59.4-386 245.9-1156.2 56.6C164.1 237.4 0 273.2 0 273.2v294.6z" fill="url(#_Linear2)" transform="translate(-2e-7 .4087553)"/>
  <defs>
    <linearGradient id="_Linear1" x1="0" y1="0" x2="1" y2="0" gradientUnits="userSpaceOnUse" gradientTransform="rotate(-90 1118.989 -717.001) scale(401.988)">
      <stop offset="0" stop-color="#202020"/>
      <stop offset="1" stop-color="#424242"/>
    </linearGradient>
    <linearGradient id="_Linear2" x1="0" y1="0" x2="1" y2="0" gradientUnits="userSpaceOnUse" gradientTransform="rotate(-90 1201.909 -634.121) scale(422.727)">
      <stop offset="0" stop-color="#121212"/>
      <stop offset="1" stop-color="#202020"/>
    </linearGradient>
  </defs>
</svg>

<?xml version="1.0" encoding="UTF-8" standalone="no"?>
<!DOCTYPE svg PUBLIC "-//W3C//DTD SVG 1.1//EN" "http://www.w3.org/Graphics/SVG/1.1/DTD/svg11.dtd">
<svg width="100%" height="100%" viewBox="0 0 3673 569" version="1.1" xmlns="http://www.w3.org/2000/svg" xmlns:xlink="http://www.w3.org/1999/xlink" xml:space="preserve" style="fill-rule:evenodd;clip-rule:evenodd;stroke-linejoin:round;stroke-miterlimit:2;">
    <g transform="matrix(1,0,0,1,-0.988684,-0.0116717)">
        <g transform="matrix(1,0,0,1,1,0)">
            <path id="startwave1_1_" d="M0,402L3671.9,402L3672,232.2C3672,232.2 3201.1,274.4 2745.9,96.6C2197.8,-117.4 1769.9,87.6 1709.9,110.9C1563.8,167.4 1342.8,344.7 610.4,164.7C336.1,87.8 0,140.7 0,140.7L0,402Z" style="fill:url(#_Linear1);"/>
            <g id="startwave1_2_" transform="matrix(1,0,0,1,-0.0113162,0.420427)">
                <path d="M0,567.8L3672,567.8L3672.1,389.2C3672.1,389.2 3176.9,433.5 2698.2,246.6C2121.8,21.6 1671.9,237.2 1608.7,261.6C1455,321 1222.7,507.5 452.5,318.2C164.1,237.4 0,273.2 0,273.2L0,567.8Z" style="fill:url(#_Linear2);"/>
            </g>
        </g>
    </g>
    <defs>
        <linearGradient id="_Linear1" x1="0" y1="0" x2="1" y2="0" gradientUnits="userSpaceOnUse" gradientTransform="matrix(2.46147e-14,-401.988,401.988,2.46147e-14,1835.99,401.988)"><stop offset="0" style="stop-color:rgb(32,32,32);stop-opacity:1"/><stop offset="1" style="stop-color:rgb(66,66,66);stop-opacity:1"/></linearGradient>
        <linearGradient id="_Linear2" x1="0" y1="0" x2="1" y2="0" gradientUnits="userSpaceOnUse" gradientTransform="matrix(2.58846e-14,-422.727,422.727,2.58846e-14,1836.03,567.788)"><stop offset="0" style="stop-color:rgb(18,18,18);stop-opacity:1"/><stop offset="1" style="stop-color:rgb(32,32,32);stop-opacity:1"/></linearGradient>
    </defs>
</svg>
